X: 36301
T: Seamus Mor McKenna's
R: reel
M: 4/4
K: Dmajor
AG|(3FED AD FDAD|BDAD (3Bcd AG|FDFA GEEE|GABc (3Bcd AG|
(3FED AD FDAD|BDAD (3Bcd AG|FDFA GEEE|GABc defg||
afdf g2 fg|edBc defg|afdf g2 fg|e2 (3ABc defg|
afdf g2 fg|edBc dAAG|FAdf g2 bg|e2 dA (3Bcd||

